X: 3229
T: LADY WEMYSS
%R: jig
B: James Kerr "Merry Melodies" v.3 p.26 #229
Z: 2016 John Chambers <jc:trillian.mit.edu>
M: 6/8
L: 1/8
K: A
uB |\
cde eAa | cAc e2d | cde ef=g | B=GB d2B |\
cde efg | agf edc | dbd cac | B=GB d2 |:\
e |\
aec ecA | aec efg | aec ecA | B=GB d2 :|

%%sep 1 1 500
%%sep 1 1 500

